packages/nimble-tokens/assets-icons/Key_16x16.svg

<svg id="Layer_1" data-name="Layer 1" xmlns="http://www.w3.org/2000/svg" viewBox="0 0 16 16"><path d="M9.74661,1.55079,9.55934,3.47612l-.869-.869ZM7.23158,9.28,1.73806,14.77352l-.5271-.5271L7.75973,7.69765Zm5.37277-7.97986L14.34241,3.0382l-.08858.96107L11.99625,4.175l-.5271-.5271.18094-2.26257ZM14.09071,5.897,13.03546,6.95224l-.87009-.868Zm1.1794.55867.37244-3.84857L13.03546,0,9.18689.37244,6.95224,2.60709V6.08321l-.869.869v.869l-.43451.41642-.869.0181L3.47612,9.55934v.869h-.869l-.43451.43451v.869l-.869.869h-.869L0,13.03546l.17176,1.90982L1.22648,16l1.56683-.54367,6.766-6.766h3.47612Z" opacity="0.7"/></svg>

<?xml version="1.0" encoding="iso-8859-1"?>
<!-- Generator: Adobe Illustrator 22.0.1, SVG Export Plug-In . SVG Version: 6.00 Build 0)  -->
<svg version="1.1" id="Layer_1" xmlns="http://www.w3.org/2000/svg" xmlns:xlink="http://www.w3.org/1999/xlink" x="0px" y="0px"
	 viewBox="0 0 16 16" style="enable-background:new 0 0 16 16;" xml:space="preserve">
<path style="opacity:0.7;" d="M9.747,1.551L9.559,3.476L8.69,2.607L9.747,1.551z M7.232,9.28l-5.494,5.494l-0.527-0.527L7.76,7.698
	L7.232,9.28z M12.604,1.3l1.738,1.738l-0.089,0.961l-2.258,0.176l-0.527-0.527l0.181-2.263L12.604,1.3z M14.091,5.897l-1.055,1.055
	l-0.87-0.868L14.091,5.897z M15.27,6.456l0.372-3.849L13.035,0L9.187,0.372L6.952,2.607v3.476L6.083,6.952v0.869L5.649,8.238
	L4.78,8.256L3.476,9.559v0.869H2.607l-0.435,0.435l0,0.869l-0.869,0.869H0.435L0,13.035l0.172,1.91L1.226,16l1.567-0.544L9.559,8.69
	h3.476L15.27,6.456z"/>
</svg>
